X: 352
T: Moj Maro, moj Marine
B: incoming
M:3/4
L:1/8
Q: 1/4=160
K:Ab
V:1 treble
%%MIDI program 71 % Clarinet
 "Am" GA Bc cf |"fm" BA F2- F2 |"Eb" Be Be Be |"fm" F2 F2 F2 |"Ab" GA Bc cf |
"fm" BA F2- F2 |"Eb" Be Be Be |"fm" F2 F2 F2 |:"Ab" A2 (c3 B) |"fm" B2 (A F3) |
 "Eb" A2 B3 A |"fm" BB (A F3) |"Ab" A2 (c3 B) |[1"fm" (BA F4) |"Eb" A2 (B3 A) ||
"fm" BB A F3  :|[2 "Db"(e2 B4) |"Eb" (BA) F2 E z|"fm" F2- F4 |] %19
 z6 | z6 |] %21
V:2 treble
%%MIDI program 68 % Oboe
 x6 | x6 | x6 | x6 | x6 |
 x6 | x6 | x6 |: E2 E4 | F2!p! F4 |
 E2 E4 | F2 F4 | E2 E4 |[1 F2- F4 | %14
 E2 E4 ||
 F2-  F4:|[1 F2- F4 | E2 E4  | F2- F4 |] x6 | x6 |] %21
V:3 treble
%%MIDI program 42 % Cello
 E6 | A2 F4 | E2 C2 E2 | F6 | E6 |
 A2 F4 | C4 E2 | F6 |: E6 | A6 |
 E2 C2 E2 | F6 | E6 |[1 A6 | E2 C2 E2 |
 F6 :|[2 A6 | E2 C2 E2 | F2- F4 |] z6 | z6 |]
V:4 treble
%%MIDI program 6 % Harpsichord
 GA Bf cf | FG Af cf | GA Be Be | FG Af cf | GA Bf cf |
 FG Af cf | GA Be Be | %7
 FG Af cf |: AB cf cf | FG Af cf |
 GA Be Be | FG Af cf | AB cf cf |[1 FG Af cf | GA Be Be | %15
 FG Af cf :|[2 FG Af cf | GA Be Be | FG Af cf |] f2 c2 BA | F4 z2 |] %21
W: www.folkloretanznoten.de
% abcbook-tune_id 63cb0843288bc43cffa6e379
% abcbook-tune_composer_id 
% abcbook-boost 0
% abcbook-difficulty 0
% abcbook-tags balkan dances
% abcbook-tablature 
% abcbook-transpose 
% abcbook-tuning 
% abcbook-lastupdated 1674250307968
% abcbook-soundfonts 
% abcbook-repeats 1
%%score ( 1 2 ) 3 4

